X:6
T:Reel, A
S:John Moore's Book 3
Z:Transcribed by Steve Mansfield 05/2021
%%VWML: Moore1-4495-p4-0
F:https://www.vwml.org/record/Moore3/4495/p4
M:C
L:1/8
K:C
G | c2 ed/c/ g>ce>c | g>cc'>c bcac | g>c ed/c/ g>ce>c | d>Ge>G f>Gd>G | 
c2 ed/c/ g>ce>c | g>cc'>c b>ca>c | g>ag>e g>c'g>e | d>cd>e c3 :|
|: G | B2BA/G/ d>GB>G | dGfG e>Gd>B | e2 ed/c/ g>ce>c | g>cc'>c b>ca>c | 
g>e ed/c/ c'>ca>c | g>e ed/c/ c'>cb>c | g>da>g fedc | B>cdc/B/ GAB :|

